X: 2
T:Cunla
T: The Frieze Breeches
M: 12/8
L: 1/8
K: Dmix
D2 E F2G A2 d cAG|!roll!A3 BAG !roll!A3 !roll!A3|
D2 E F2 G A2 d cAG| F2 A G2 E D3 D3:|]
d2 e fed e2 d cAG|!roll!A3 BAG !roll!A3 !roll!A3|
d2 e fed e2 d cAG| F2 A G 2E D2 D3:|]






